X:13010
T:Merrily Danced the Quaker's Wife
T:Merrily Kiss the Quaker
R:Slide
C:Trad.
O:Scotland
M:12/8
L:1/8
Q:1/8=220
K:G
D|"G"GAB D2 B "C"c2 A "Em"BGE|"G"GAB DEG "D"ABA AGE|
"G"GAB D2 B "C"c2 A "Em"BGE|"G"GAB "D"D2 E "G"G3 G2:|
|:A|"G"BGG "C"AGG "G"BGG "C"AGE|"G"GAB DEG "D"ABA AGA|
"G"BGG "C"AGG "G"BGG "C"AGE|"G"GAB "D"D2 E "G"G3 G2:|
|:d|"G"gfg "D"aga "G"bge dBd|"G"g2 g gab "D"a3 agf|
"C"gag "D"fgf "G"ege dBA|"G"GAB "D"D2 E "G"G3 G2:|

